X: 22336
T: La Valsounette
R: waltz
M: 3/4
K: Aminor
"A"E>A c>B A>G|F>A c>B A>^G|A>c e>^g a>b|c'3 c' b>a|g>e b>a g>e|^f2 f>^g a>f|
^g>e e>d B>A|^G>A B>G F>F & x4 F>D|E>A c>B A>G|F>A c>B A>^G|A>c e>^g a>b|c'3 c' b>c'|
d'>c' b>a d'>c'|b>e' b>^g & b2 b>e &) f2|e>^g b>e c'>b|1 a3 G A>G:|2 a4a2|"B"b>^g g>e e>b|
b>^g g>e e>c'|c'>a a>e e>c'|c'>a a>e e>b|b>^g g>e e>b|b>^g g>e e>E|F>E F>G A>B|
(3cBc (3dcd (3e^ga|b>^g g>e e>b|b>^g g>e e>c'|c'>a a>e e>c'|c'>a a>e b>c'|d'>c' b>a d'>c'|
b>e' b>^g & b2 b>e &) f2|e>^g b>e c'>b|1 a3 G A>G||2 a4a2 & a2 (3AGE (3AGE|"C"(3b^ge (3bge g2|(3b^ge (3bge g2|(3c'ae (3c'ae a2|
(3c'ae (3c'ae a2|(3b^ge (3bge g2|(3b^ge (3bge g>E|F>E F>G A>B|(3cBc (3dcd (3e^ga|(3b^ge (3bge g2|
(3b^ge (3bge g2|(3c'ae (3c'ae a2|(3c'ae (3c'ae b>c'|d'>c' b>a d'>c'|b2 b>e f2|e>^g b>e c'>b|a2 .a'2 z2||

